packages/foundations/assets/icons/functional/images/business & payment/gift_20.svg

<svg width="20" height="20" viewBox="0 0 20 20" fill="none" xmlns="http://www.w3.org/2000/svg">
<g clip-path="url(#clip0_184_63)">
<path fill-rule="evenodd" clip-rule="evenodd" d="M11.502 2.4975C11.8524 2.50005 12.196 2.59452 12.4984 2.77146C12.8008 2.9484 13.0515 3.20162 13.2254 3.5058C13.3993 3.80999 13.4903 4.15448 13.4894 4.50487C13.4884 4.85526 13.3956 5.19926 13.22 5.5025H15.756C16.3501 5.50591 16.9189 5.74343 17.339 6.16352C17.7591 6.58361 17.9966 7.1524 18 7.7465V15.2385C18 16.4095 17.161 17.5025 15.756 17.5025H4.244C3.014 17.5025 2 16.4875 2 15.2375V7.7475C2 6.5175 3.034 5.5035 4.244 5.5035H6.78C6.59911 5.2033 6.50464 4.85898 6.507 4.5085C6.507 3.3965 7.405 2.4985 8.497 2.4985C8.78142 2.49995 9.06233 2.56146 9.32133 2.67899C9.58034 2.79651 9.81161 2.96741 10 3.1805C10.1882 2.96736 10.4193 2.79634 10.6781 2.67865C10.9369 2.56095 11.2177 2.49922 11.502 2.4975ZM9.005 11.4925H4.01V15.4925H9.005V11.4925ZM15.99 11.4925H10.995V15.4925H15.99V11.4925ZM9.005 7.4925H4.01V9.5025H9.005V7.4925ZM15.99 7.4925H10.995V9.5025H15.99V7.4925Z" fill="#1A1C1F"/>
</g>
<defs>
<clipPath id="clip0_184_63">
<rect width="20" height="20" fill="white"/>
</clipPath>
</defs>
</svg>

<svg xmlns="http://www.w3.org/2000/svg" width="20" height="20" fill="none"><g clip-path="url(#a)"><path fill="#1A1C1F" fill-rule="evenodd" d="M11.502 2.498a2.002 2.002 0 0 1 1.718 3.005h2.536A2.257 2.257 0 0 1 18 7.747v7.492c0 1.17-.839 2.264-2.244 2.264H4.244C3.014 17.503 2 16.488 2 15.238v-7.49c0-1.23 1.034-2.245 2.244-2.245H6.78c-.18-.3-.275-.644-.273-.995 0-1.111.898-2.01 1.99-2.01A2.02 2.02 0 0 1 10 3.18a2.02 2.02 0 0 1 1.502-.683m-2.497 8.994H4.01v4h4.995zm6.985 0h-4.995v4h4.995zm-6.985-4H4.01v2.01h4.995zm6.985 0h-4.995v2.01h4.995z" clip-rule="evenodd"/></g><defs><clipPath id="a"><path fill="#fff" d="M0 0h20v20H0z"/></clipPath></defs></svg>
